X: 15367
T: Glasgow Lasses, The
R: waltz
M: 3/4
K: Fmajor
G/A/|:BA G3 F/D/|FG A3 F/G/|Af d>e f/d/c/A/|1 G2 G3 G/A/:|2 G2 G4||
cd/e/ f>ef>d|cA g4|[M:4/4] fd f>g a4|gf g/a/g/f/ d4|
[M:3/4]cd/e/ f>ef>d|cA g2 ag|fd cc/d/ f/d/c/A/|G2 G4||

